X:1
T:Colne No.2
M:6/8
L:1/8
Z: Contributed 2016-11-07 19:24:42 by Dave Hunt daverhunt@aol.com
K:G
P:A
B2B c2c|dBG AFD|G2G A2A|BcB A3|
B2B c2c|dBG AFD|GFG ABc|A3 G2A||
P:B
B2d ded|g2d ded|B2d ded|dcB A3|
B2d ded|g2d ded|GAB BAG|A3 G3||
